X: 1
T: Svensk Anna's Vals
T: Svenskarnasvalsen
T: Nordfjordsvals
%: Fjordvalsen
O: Trad Scandinavian
N: Alfred Maurstad, a fiddler from Nordfjord, Norway, played this tune
N: in the Norwegian film "Fant".
R: waltz
A: Orkney
A: Boda
O: Sweden
O: Scotland
Z: Manuel Waldesco <mwal:wanadoo.es> tradtunes 2002-6-18
M: 3/4
K: D
FG |\
A2f2e2 | d2c2B2 | A2F2G2 | A4 FG |\
A2f2e2 | d2c2d2 | e3f ed | e4 FG |
A2f2e2 | d2c2B2 | A2F2G2 | A4 AA |\
B2g2f2 | e2B2c2 | d3e dc | d4 :|
|: FG |\
A4 f2 | A4 A2 |  B4 g2 | B4 B2 |\
c3d cB | E2F2G2 |  B2A2G2 | F4 FG |
A4 f2 | A4 AA | B4 g2 | B4 BB |\
c3d cB | A2 f2 e2 | d3e dc | d4 :|
